icons/outline/screenshot.svg

<!--
tags: [image, capture, photo]
version: "1.70"
unicode: "f201"
-->
<svg
  xmlns="http://www.w3.org/2000/svg"
  width="24"
  height="24"
  viewBox="0 0 24 24"
  fill="none"
  stroke="currentColor"
  stroke-width="2"
  stroke-linecap="round"
  stroke-linejoin="round"
>
  <path d="M7 19a2 2 0 0 1 -2 -2m0 -4v-2m0 -4a2 2 0 0 1 2 -2m4 0h2m4 0a2 2 0 0 1 2 2m0 4v2m0 4v4m2 -2h-4m-4 0h-2" />
</svg>

<!--
tags: [image, capture, photo]
version: "1.70"
unicode: "f201"
-->
<svg
  xmlns="http://www.w3.org/2000/svg"
  width="24"
  height="24"
  viewBox="0 0 24 24"
  fill="none"
  stroke="currentColor"
  stroke-width="2"
  stroke-linecap="round"
  stroke-linejoin="round"
>
    <path d="M7 19a2 2 0 0 1 -2 -2M5 13v-2M5 7a2 2 0 0 1 2 -2M11 5h2M17 5a2 2 0 0 1 2 2M19 11v2M19 17v4M21 19h-4M13 19h-2" />
</svg>
